svg/color/avax.svg

<svg width="32" height="32" viewBox="0 0 32 32" fill="none" xmlns="http://www.w3.org/2000/svg"><path d="M16 32c8.837 0 16-7.163 16-16S24.837 0 16 0 0 7.163 0 16s7.163 16 16 16z" fill="#E84142"/><path d="M21.6 16.4c.2-.6.8-.8 1.4-.7.3.1.5.3.7.7l3.4 6.1c.6 1 .1 1.7-1 1.7h-7c-1.1 0-1.6-.8-1-1.7l3.5-6.1zM14.9 4.7c0-.6.4-1 1-1s1 .4 1 1l.8 1.4 1.8 3.2c.4.9.4 2 0 2.9l-6.1 10.5c-.6.9-1.5 1.4-2.5 1.5h-5c-1.1 0-1.6-.8-1-1.7l10-17.8z" fill="#fff"/></svg>

<svg width="32" height="32" viewBox="0 0 32 32" fill="none" xmlns="http://www.w3.org/2000/svg">
	<path
		d="M16 32C24.8366 32 32 24.8366 32 16C32 7.16344 24.8366 0 16 0C7.16344 0 0 7.16344 0 16C0 24.8366 7.16344 32 16 32Z"
		fill="#E84142" />
	<path
		d="M21.6 16.4C21.8 15.8 22.4 15.6 23 15.7C23.3 15.8 23.5 16 23.7 16.4L27.1 22.5C27.7 23.5 27.2 24.2 26.1 24.2H19.1C18 24.2 17.5 23.4 18.1 22.5L21.6 16.4ZM14.9 4.7C14.9 4.1 15.3 3.7 15.9 3.7C16.5 3.7 16.9 4.1 16.9 4.7L17.7 6.1L19.5 9.3C19.9 10.2 19.9 11.3 19.5 12.2L13.4 22.7C12.8 23.6 11.9 24.1 10.9 24.2H5.9C4.8 24.2 4.3 23.4 4.9 22.5L14.9 4.7Z"
		fill="white" />
</svg>
